X: 305637
T: COTILLION No. 2. BALTIMORE SETT tune 8
%R: jig
B: Elias Howe "The Musician's Companion" Part 3 1844 p.81 #5
S: http://imslp.org/wiki/The_Musician's_Companion_(Howe,_Elias)
Z: 2015 John Chambers <jc:trillian.mit.edu>
M: 6/8
L: 1/8
K: Bb
% - - - - - - - - - - - - - - - - - - - - - - - - - - - - -
F |\
F>GA B>cd | edc [dB][cA][BG] | (A>f)f (B>g)g | (B<b)b (B<f)f |\
F>GA B>cd | cde fga | bge dec | {d}cBB B2 H:|
A |\
F<BB G<BB | F<BB G<BB | FB/B/B Bcd | e2d c2B |\
FB/B/B GB/B/B | FB/B/B GB/B/B | bge dec | {d}cBB "^D.C."B2 :|
% - - - - - - - - - - Dance description - - - - - - - - - -
%%begintext align
%% First lady balance to the right and turn,
%% balance to the next, &c.,
%% till you come to your partner,
%% balancing to him last.
%% The other ladies the same.
%% Gents. also.
%%endtext
% - - - - - - - - - - - - - - - - - - - - - - - - - - - - -
%%sep 1 1 300


